static/images/illustrations/block-library.svg

<svg width="245" height="245" viewBox="0 0 245 245" fill="none" xmlns="http://www.w3.org/2000/svg">
<g clip-path="url(#clip0)">
<path d="M0 0H245V245H0V0Z" fill="#fff"/>
<rect x="16" y="14" width="213" height="24" rx="2" fill="#f6f7f7"/>
<path d="M123 18C118.6 18 115 21.6 115 26C115 30.4 118.6 34 123 34C127.4 34 131 30.4 131 26C131 21.6 127.4 18 123 18ZM123 32.5C119.4 32.5 116.5 29.6 116.5 26C116.5 22.4 119.4 19.5 123 19.5C126.6 19.5 129.5 22.4 129.5 26C129.5 29.6 126.6 32.5 123 32.5ZM120 30L124.5 27L126 22.4L121.5 25.4L120 30Z" fill="#101517"/>
<rect y="52" width="245" height="85" rx="2" fill="#f6f7f7"/>
<path d="M128.956 86H117.044C115.889 86 115 86.8889 115 88.0444V99.9556C115 101.111 115.889 102 117.044 102H128.956C130.111 102 131 101.111 131 99.9556V88.0444C131 86.8889 130.111 86 128.956 86ZM129.667 99.9556C129.667 100.311 129.311 100.667 128.956 100.667H117.044C116.689 100.667 116.333 100.311 116.333 99.9556V88.0444C116.333 87.6889 116.689 87.3333 117.044 87.3333H128.956C129.311 87.3333 129.667 87.6889 129.667 88.0444V99.9556ZM121.222 96.6667L125.667 94L121.222 91.3333V96.6667Z" fill="#101517"/>
<rect x="40" y="151" width="66" height="40" rx="2" fill="#f6f7f7"/>
<path d="M79.2222 163H66.7778C65.8 163 65 163.8 65 164.778V177.222C65 178.2 65.8 179 66.7778 179H79.2222C80.2 179 81 178.2 81 177.222V164.778C81 163.8 80.2 163 79.2222 163ZM66.7778 164.333H79.2222C79.4889 164.333 79.6667 164.511 79.6667 164.778V172.244L77 169.667C76.7333 169.4 76.2889 169.4 76.1111 169.667L72.9111 172.778L70.3333 171C70.0667 170.822 69.8 170.822 69.6222 171L66.4222 173.311V164.778C66.3333 164.511 66.5111 164.333 66.7778 164.333ZM79.2222 177.667H66.7778C66.5111 177.667 66.3333 177.489 66.3333 177.222V175.089L69.9778 172.422L72.6444 174.111C72.9111 174.289 73.2667 174.289 73.4444 174.022L76.5556 171L79.6667 174.022V177.222C79.6667 177.489 79.4889 177.667 79.2222 177.667Z" fill="#101517"/>
<rect x="139" y="151" width="66" height="40" rx="2" fill="#f6f7f7"/>
<path d="M178.222 163H165.778C164.8 163 164 163.8 164 164.778V177.222C164 178.2 164.8 179 165.778 179H178.222C179.2 179 180 178.2 180 177.222V164.778C180 163.8 179.2 163 178.222 163ZM165.778 164.333H178.222C178.489 164.333 178.667 164.511 178.667 164.778V172.244L176 169.667C175.733 169.4 175.289 169.4 175.111 169.667L171.911 172.778L169.333 171C169.067 170.822 168.8 170.822 168.622 171L165.422 173.311V164.778C165.333 164.511 165.511 164.333 165.778 164.333ZM178.222 177.667H165.778C165.511 177.667 165.333 177.489 165.333 177.222V175.089L168.978 172.422L171.644 174.111C171.911 174.289 172.267 174.289 172.444 174.022L175.556 171L178.667 174.022V177.222C178.667 177.489 178.489 177.667 178.222 177.667Z" fill="#101517"/>
<rect x="28" y="205" width="189" height="48" rx="2" fill="#f6f7f7"/>
<path d="M129.3 217H120.9V216.9L120 217.1C117.7 217.5 116 219.5 116 221.9C116 224.3 117.7 226.3 120 226.7L120.7 226.8V233H122.2V218.5H125.1V233H126.6V218.5H129.3V217Z" fill="#101517"/>
</g>
<defs>
<clipPath id="clip0">
<path d="M0 0H245V245H0V0Z" fill="#fff"/>
</clipPath>
</defs>
</svg>

<svg width="245" height="245" fill="none" xmlns="http://www.w3.org/2000/svg"><g clip-path="url(#clip0)"><path d="M0 0h245v245H0V0z" fill="#fff"/><rect x="16" y="14" width="213" height="24" rx="2" fill="#f6f7f7"/><path d="M123 18c-4.4 0-8 3.6-8 8s3.6 8 8 8 8-3.6 8-8-3.6-8-8-8zm0 14.5c-3.6 0-6.5-2.9-6.5-6.5s2.9-6.5 6.5-6.5 6.5 2.9 6.5 6.5-2.9 6.5-6.5 6.5zm-3-2.5l4.5-3 1.5-4.6-4.5 3L120 30z" fill="#101517"/><rect y="52" width="245" height="85" rx="2" fill="#f6f7f7"/><path d="M128.956 86h-11.912A2.011 2.011 0 00115 88.044v11.912c0 1.155.889 2.044 2.044 2.044h11.912A2.012 2.012 0 00131 99.956V88.044A2.011 2.011 0 00128.956 86zm.711 13.956c0 .355-.356.711-.711.711h-11.912c-.355 0-.711-.356-.711-.711V88.044c0-.355.356-.71.711-.71h11.912c.355 0 .711.355.711.71v11.912zm-8.445-3.29L125.667 94l-4.445-2.667v5.334z" fill="#101517"/><rect x="40" y="151" width="66" height="40" rx="2" fill="#f6f7f7"/><path d="M79.222 163H66.778c-.978 0-1.778.8-1.778 1.778v12.444c0 .978.8 1.778 1.778 1.778h12.444c.978 0 1.778-.8 1.778-1.778v-12.444c0-.978-.8-1.778-1.778-1.778zm-12.444 1.333h12.444c.267 0 .445.178.445.445v7.466L77 169.667c-.267-.267-.711-.267-.889 0l-3.2 3.111L70.333 171c-.266-.178-.533-.178-.71 0l-3.2 2.311v-8.533c-.09-.267.088-.445.355-.445zm12.444 13.334H66.778c-.267 0-.445-.178-.445-.445v-2.133l3.645-2.667 2.666 1.689c.267.178.623.178.8-.089L76.556 171l3.11 3.022v3.2c0 .267-.177.445-.444.445z" fill="#101517"/><rect x="139" y="151" width="66" height="40" rx="2" fill="#f6f7f7"/><path d="M178.222 163h-12.444c-.978 0-1.778.8-1.778 1.778v12.444c0 .978.8 1.778 1.778 1.778h12.444c.978 0 1.778-.8 1.778-1.778v-12.444c0-.978-.8-1.778-1.778-1.778zm-12.444 1.333h12.444c.267 0 .445.178.445.445v7.466L176 169.667c-.267-.267-.711-.267-.889 0l-3.2 3.111-2.578-1.778c-.266-.178-.533-.178-.711 0l-3.2 2.311v-8.533c-.089-.267.089-.445.356-.445zm12.444 13.334h-12.444c-.267 0-.445-.178-.445-.445v-2.133l3.645-2.667 2.666 1.689c.267.178.623.178.8-.089l3.112-3.022 3.111 3.022v3.2c0 .267-.178.445-.445.445z" fill="#101517"/><rect x="28" y="205" width="189" height="48" rx="2" fill="#f6f7f7"/><path d="M129.3 217h-8.4v-.1l-.9.2c-2.3.4-4 2.4-4 4.8s1.7 4.4 4 4.8l.7.1v6.2h1.5v-14.5h2.9V233h1.5v-14.5h2.7V217z" fill="#101517"/></g><defs><clipPath id="clip0"><path d="M0 0h245v245H0V0z" fill="#fff"/></clipPath></defs></svg>
